img/svg/services-plus.svg

<svg width="20" height="20" viewBox="0 0 20 20" fill="none" xmlns="http://www.w3.org/2000/svg"><path fill-rule="evenodd" clip-rule="evenodd" d="M9 9V0h2v9h9v2h-9v9H9v-9H0V9h9z" fill="#316485"/></svg>

<svg width="20" height="20" viewBox="0 0 20 20" fill="none" xmlns="http://www.w3.org/2000/svg">
<path fill-rule="evenodd" clip-rule="evenodd" d="M9 9L9 -3.93402e-07L11 -4.80825e-07L11 9L20 9L20 11L11 11L11 20L9 20L9 11L-3.93402e-07 11L-4.80825e-07 9L9 9Z" fill="#316485"/>
</svg>
